static/images/mobile/copyright/wikipedia-wordmark-bg.svg

<?xml version="1.0" encoding="UTF-8"?>
<svg width="120px" height="21px" viewBox="0 0 120 21" version="1.1" xmlns="http://www.w3.org/2000/svg" xmlns:xlink="http://www.w3.org/1999/xlink">
    <title>bg-wordmark</title>
    <g id="Page-1" stroke="none" stroke-width="1" fill="none" fill-rule="evenodd">
        <path d="M0.0696321793,0.000671921661 C0.337512699,0.00478317115 1.79046151,0.026367231 2.76855925,0.026367231 L2.93037373,0.0262440432 C4.1421346,0.0244620403 5.87661812,0.00389475642 6.1572837,0.00047925079 L6.19629879,0 L6.24903325,0.026367231 L6.24903325,0.527344619 C6.24903325,0.659180774 6.19629879,0.738282467 6.06446263,0.738282467 L5.06250785,0.791016929 C4.21875744,0.84375139 4.16602298,1.18652539 4.48242877,1.8720734 L8.62208403,10.9951353 L8.67481849,10.9951353 L12.0761913,1.8720734 C12.4189653,0.949220314 12.2607609,0.870118621 11.2060727,0.791016929 L10.441423,0.738282467 C10.335954,0.738282467 10.2832196,0.659180774 10.2832196,0.55371185 L10.2832196,0.026367231 L10.3095868,0 L10.3509503,0.000614112817 C10.620764,0.00457613099 12.1505007,0.026367231 13.1572478,0.026367231 L13.3101809,0.0261042563 C14.1455171,0.0233564399 15.2666262,0 15.2666262,0 L15.3193607,0.026367231 L15.3193607,0.527344619 C15.3193607,0.685548005 15.1347901,0.738282467 15.0293212,0.738282467 C13.8164305,0.81738416 13.5527562,1.05468924 13.1572478,2.10937848 L9.0175925,12.788107 C7.88380352,15.6621352 6.43360191,17.6133103 4.06055308,17.6133103 C2.95313094,17.6133103 1.74023724,17.006864 1.74023724,16.1631126 C1.74023724,15.4248301 2.13574649,14.9502199 2.9794971,14.9502199 C3.34863794,14.9502199 3.9287179,15.1347906 4.19238923,15.4511973 C4.37695985,15.6885024 4.77246929,15.978542 5.14160955,15.978542 C5.98536094,15.978542 6.64454269,15.4248301 7.46192587,13.4472878 L2.32031632,2.29394909 C2.08301144,1.76660447 1.52929813,0.81738416 0.26367231,0.738282467 C0.105469021,0.738282467 0,0.659180774 0,0.55371185 L0,0.026367231 L0.026367231,0 Z M27.4382772,5.66895465 L27.4646444,5.72168912 L27.4646444,6.27540097 C27.4646444,6.38086989 27.4119099,6.43360435 27.306441,6.43360435 L26.5154241,6.48633881 C25.5398365,6.53907328 25.4607348,6.75001112 25.4607348,7.85743482 L25.4607348,14.9502199 C25.4607348,15.9258075 25.592572,16.215847 26.5154241,16.2685815 L27.306441,16.321316 C27.4119099,16.321316 27.4646444,16.3740504 27.4646444,16.4795193 L27.4646444,17.0332312 L27.4382772,17.0859657 C27.4382772,17.0859657 25.59257,17.0332312 24.4060456,17.0332312 L24.2513314,17.0335216 C23.0933671,17.0377171 21.4529157,17.0859657 21.4529157,17.0859657 L21.4529157,16.4531521 C21.4529157,16.3740504 21.5056502,16.321316 21.5847519,16.321316 L22.402136,16.2685815 C23.4040908,16.215847 23.4831925,15.873073 23.4831925,14.9502199 L23.4831925,8.72755345 L18.0515429,15.2666267 L18.0515429,15.3193612 C18.0515429,15.9521747 18.1306456,16.2422143 19.0271305,16.321316 C19.1325994,16.321316 19.1853339,16.3740504 19.1853339,16.4795193 L19.1853339,17.0332312 L19.1589666,17.0859657 C19.1589666,17.0859657 17.8669713,17.0332312 17.0232209,17.0332312 L16.8717985,17.0335216 C15.7369097,17.0377171 14.0964583,17.0859657 14.0964583,17.0859657 L14.0700911,17.0332312 L14.0700911,16.4531521 C14.0700911,16.3740504 14.1228255,16.321316 14.2019272,16.321316 L15.0193114,16.2685815 C16.0212661,16.215847 16.0740006,15.9258075 16.0740006,15.0029544 L16.0740006,7.88380205 C16.0740006,6.77637835 16.0212652,6.56544051 15.0193114,6.48633881 L14.2282944,6.43360435 C14.1228255,6.43360435 14.0700911,6.40723712 14.0700911,6.3017682 L14.0700911,5.72168912 L14.1491928,5.66895465 C14.1491928,5.66895465 15.889431,5.72168912 17.0232209,5.72168912 L17.1782255,5.72139872 C18.3403853,5.7172032 20.0290853,5.66895465 20.0290853,5.66895465 L20.0818197,5.72168912 L20.0818197,6.27540097 C20.0818197,6.38086989 20.0290853,6.43360435 19.9236163,6.43360435 L19.1325994,6.48633881 C18.1306446,6.56544051 18.0515429,6.77637835 18.0515429,7.85743482 L18.0515429,14.1328358 L23.4831925,7.59376251 C23.4831925,6.96094897 23.4568243,6.51270605 22.5603394,6.43360435 C22.4812377,6.43360435 22.4285033,6.40723712 22.4285033,6.3017682 L22.4285033,5.72168912 L22.4812377,5.66895465 C22.4812377,5.66895465 23.6677641,5.72168912 24.4060456,5.72168912 L24.564342,5.72139872 C25.7495772,5.7172032 27.4382772,5.66895465 27.4382772,5.66895465 Z M32.2777783,15.2138923 L32.2777783,11.5224799 C34.2553187,11.6543161 34.8353997,12.6035364 35.3363771,14.0537341 C35.7318846,15.2138923 36.5492707,17.0332312 37.8676313,17.0595984 L39.7660719,17.0859657 L39.8451736,17.0332312 L39.8451736,16.558621 C39.8451736,16.3740504 39.660603,16.321316 39.555134,16.321316 L39.3441962,16.2949487 C38.3949768,16.1631126 37.3139184,13.8691635 36.8920437,12.8672087 C36.3646991,11.5752144 35.3363751,11.0478698 33.9125466,11.0478698 C35.0463366,10.8632992 35.6527839,9.78224268 36.0482923,8.64845175 C36.3383309,7.83106759 36.7338403,7.25098851 36.9975126,7.25098851 C37.2348167,7.25098851 37.4193883,7.3300902 37.5248572,7.43555913 C37.6830606,7.59376251 38.0522019,7.69923144 38.3158742,7.69923144 C38.7904834,7.69923144 39.317829,7.19825405 39.317829,6.67090943 C39.317829,6.03809589 39.0277884,5.48438404 37.9467329,5.48438404 C36.6811068,5.48438404 35.8373535,6.90821451 35.3627443,8.14747436 C34.8090325,9.59767207 34.0443808,10.5996268 32.2777783,10.5996268 L32.2777783,7.59376251 C32.2777783,6.6445422 32.8314901,6.51270605 33.5961398,6.43360435 C33.7016088,6.43360435 33.8070777,6.3017682 33.8070777,6.16993204 L33.8070777,5.72168912 L33.7543432,5.66895465 C33.7543432,5.66895465 32.2777773,5.72168912 31.2494563,5.72168912 C30.3266042,5.72168912 28.5336315,5.66895465 28.5336315,5.66895465 L28.480897,5.72168912 L28.480897,6.2226665 C28.480897,6.35450266 28.5599987,6.40723712 28.6918349,6.43360435 L29.1928123,6.48633881 C30.0365627,6.56544051 30.300236,6.90821451 30.300236,7.64649698 L30.300236,15.1611578 C30.300236,15.8994403 30.1156644,16.1631126 29.1928123,16.2685815 L28.6918349,16.321316 C28.5599987,16.3476832 28.480897,16.4004177 28.480897,16.5322538 L28.480897,17.0332312 L28.5336315,17.0859657 C28.5336315,17.0859657 30.3266042,17.0332312 31.2494563,17.0332312 C32.2777773,17.0332312 33.8070777,17.0859657 33.8070777,17.0859657 L33.8598121,17.0332312 L33.8598121,16.5322538 C33.8598121,16.4004177 33.7543432,16.3476832 33.6488743,16.321316 C33.0687952,16.2422143 32.2777783,16.0840109 32.2777783,15.2138923 M43.2184076,5.72168912 C42.0846177,5.72168912 40.3443795,5.66895465 40.3443795,5.66895465 L40.2652778,5.72168912 L40.2652778,6.3017682 C40.2652778,6.40723712 40.3180122,6.43360435 40.4234812,6.43360435 L41.2144981,6.48633881 C42.2164519,6.56544051 42.2691873,6.77637835 42.2691873,7.88380205 L42.2691873,15.0029544 C42.2691873,15.9258075 42.2164529,16.215847 41.2144981,16.2685815 L40.3971139,16.321316 C40.3180122,16.321316 40.2652778,16.3740504 40.2652778,16.4531521 L40.2652778,17.0332312 L40.291645,17.0859657 C40.291645,17.0859657 42.0846177,17.0332312 43.2184076,17.0332312 C44.0621581,17.0332312 45.3541534,17.0859657 45.3541534,17.0859657 L45.3805206,17.0332312 L45.3805206,16.4795193 C45.3805206,16.3740504 45.3277861,16.321316 45.2223172,16.321316 C44.3258323,16.2422143 44.2467297,15.9521747 44.2467297,15.3193612 L44.2467297,15.2666267 L49.6783792,8.72755345 L49.6783792,14.9502199 C49.6783792,15.873073 49.5992775,16.215847 48.5973228,16.2685815 L47.7799386,16.321316 C47.7008369,16.321316 47.6481024,16.3740504 47.6481024,16.4531521 L47.6481024,17.0332312 L47.6481024,17.0859657 C47.6481024,17.0859657 49.4410751,17.0332312 50.6012323,17.0332312 C51.7877567,17.0332312 53.6334639,17.0859657 53.6334639,17.0859657 L53.6598311,17.0332312 L53.6598311,16.4795193 C53.6598311,16.3740504 53.6070966,16.321316 53.5016277,16.321316 L52.7106108,16.2685815 C51.7877587,16.215847 51.6559216,15.9258075 51.6559216,14.9502199 L51.6559216,7.85743482 C51.6559216,6.75001112 51.7350232,6.53907328 52.7106108,6.48633881 L53.5016277,6.43360435 C53.6070966,6.43360435 53.6598311,6.38086989 53.6598311,6.27540097 L53.6598311,5.72168912 L53.6334639,5.66895465 C53.6334639,5.66895465 51.7877567,5.72168912 50.6012323,5.72168912 C49.8629508,5.72168912 48.6764245,5.66895465 48.6764245,5.66895465 L48.62369,5.72168912 L48.62369,6.3017682 C48.62369,6.40723712 48.6764245,6.43360435 48.7555261,6.43360435 C49.652011,6.51270605 49.6783792,6.96094897 49.6783792,7.59376251 L44.2467297,14.1328358 L44.2467297,7.85743482 C44.2467297,6.77637835 44.3258313,6.56544051 45.3277861,6.48633881 L46.1188031,6.43360435 C46.224272,6.43360435 46.2770064,6.38086989 46.2770064,6.27540097 L46.2770064,5.72168912 L46.224272,5.66895465 C46.224272,5.66895465 44.3785648,5.72168912 43.2184076,5.72168912 M56.6272588,7.77833313 L56.6272588,15.0293216 C56.6272588,15.9521747 56.4954217,16.215847 55.5462024,16.2685815 L54.7551854,16.321316 C54.6497175,16.321316 54.5969821,16.3740504 54.5969821,16.4531521 L54.5969821,17.0332312 L54.6497165,17.0859657 C54.6497165,17.0859657 56.4426902,17.0332312 57.6028464,17.0332312 C58.7366363,17.0332312 60.4768746,17.0859657 60.4768746,17.0859657 L60.5032418,17.0332312 L60.5032418,16.4795193 C60.5032418,16.3740504 60.4505073,16.321316 60.3714056,16.321316 L59.6594904,16.2685815 C58.7630055,16.215847 58.6048012,16.0312764 58.6048012,15.0293216 L58.6048012,7.77833313 C58.6048012,6.85548005 59.1321468,6.75001112 59.6858576,6.75001112 L62.8762926,6.75001112 C63.4036372,6.75001112 63.9573491,6.80274559 63.9573491,7.77833313 L63.9573491,15.0293216 C63.9573491,15.9521747 63.8255119,16.1894798 62.8762926,16.2685815 L62.1643773,16.321316 C62.0852757,16.321316 62.0325412,16.3740504 62.0325412,16.4531521 L62.0325412,17.0332312 L62.0589084,17.0859657 C62.0589084,17.0859657 63.8255148,17.0332312 64.9593038,17.0332312 C66.119461,17.0332312 67.9124337,17.0859657 67.9124337,17.0859657 L67.9388009,17.0332312 L67.9388009,16.4795193 C67.9388009,16.3740504 67.8860665,16.321316 67.7805975,16.321316 L66.9895806,16.2685815 C66.0667285,16.215847 65.9085241,16.0312764 65.9085241,15.0293216 L65.9085241,7.7519659 C65.9085241,6.67090943 65.9876258,6.56544051 66.9895806,6.48633881 L67.7805975,6.43360435 C67.8860665,6.43360435 67.9388009,6.38086989 67.9388009,6.27540097 L67.9388009,5.72168912 L67.9124337,5.66895465 C67.9124337,5.66895465 66.0667266,5.72168912 64.8802021,5.72168912 L57.5764792,5.72168912 C56.4426902,5.72168912 54.6760838,5.66895465 54.6760838,5.66895465 L54.6233493,5.72168912 L54.6233493,6.3017682 C54.6233493,6.40723712 54.6760838,6.43360435 54.7551854,6.43360435 L55.5462024,6.48633881 C56.4954217,6.53907328 56.6272588,6.67090943 56.6272588,7.77833313 M71.0191146,9.46583591 C71.4937238,6.48633881 73.4448998,6.35450266 74.0513462,6.35450266 C75.0005655,6.35450266 76.2398263,6.88184728 76.2398263,9.09669468 C76.2398263,9.33399976 76.1343564,9.46583591 75.8706851,9.46583591 L71.0191146,9.46583591 M77.9800636,14.5283443 C77.0572115,15.530299 76.1343554,16.0049092 74.6841597,16.0049092 C73.2075957,16.0049092 70.9400129,14.4228753 70.9400129,10.4941579 L77.8745946,10.4941579 C78.1646332,10.4941579 78.3492048,10.3359545 78.3492048,10.045915 C78.3492048,7.83106759 77.5318167,5.45801681 74.0513462,5.45801681 C71.5464612,5.45801681 68.8306344,7.77833313 68.8306344,11.7861522 C68.8306344,14.8183838 70.4390384,17.2969035 74.0513462,17.2969035 C75.9497848,17.2969035 77.5054544,16.321316 78.5074082,14.9502199 C78.4283065,14.6865476 78.2701021,14.5547115 77.9800636,14.5283443 M82.4125172,15.6885024 C82.4125172,15.2402595 83.0716979,13.4209108 83.4408392,7.4091919 C83.4408392,7.30372297 83.5726753,6.72364389 84.1791216,6.72364389 L86.3148673,6.72364389 C87.2904539,6.72364389 87.3695566,7.11915236 87.3695566,8.01563821 L87.3695566,14.7129149 C87.3695566,15.5830335 87.2904549,16.0049092 86.3148673,16.0049092 L82.9134945,16.0049092 C82.6498222,16.0049092 82.4125172,15.978542 82.4125172,15.6885024 M82.8607601,17.0332312 L87.3959238,17.0332312 C89.584401,17.0332312 90.3490537,19.3535475 90.5599915,20.4082368 L91.2191723,20.4082368 L91.0609689,16.8750278 C91.0609689,16.5058866 90.8763973,16.4004177 90.4017881,16.321316 C89.9535452,16.2422143 89.3470989,16.0049092 89.3470989,15.0293216 L89.3470989,7.72559867 C89.3470989,6.82911282 89.6107722,6.59180774 90.5599915,6.48633881 L91.0082344,6.43360435 C91.0873361,6.43360435 91.1928051,6.35450266 91.1928051,6.24903374 L91.1928051,5.72168912 L91.1664378,5.66895465 C91.1664378,5.66895465 89.241629,5.72168912 88.3715114,5.72168912 L82.8607601,5.72168912 C82.4125172,5.72168912 80.3558731,5.66895465 80.3558731,5.66895465 L80.2767715,5.72168912 L80.2767715,6.3017682 C80.2767715,6.40723712 80.3558731,6.43360435 80.4613421,6.43360435 L81.1732573,6.48633881 C82.0961094,6.56544051 82.2543138,7.09278513 82.2543138,7.4091919 C82.2543138,10.5468924 81.7797026,12.9463104 81.2787262,15.187525 C81.1205228,15.8994403 80.6459117,16.2422143 79.9603647,16.321316 C79.5912234,16.3740504 79.2484494,16.4267849 79.2220822,16.901395 L79.0638788,20.4082368 L79.7494268,20.434604 C79.9603637,19.4590164 80.6459146,17.0332312 82.8607601,17.0332312 M95.0423026,5.72168912 C93.9085117,5.72168912 92.1682744,5.66895465 92.1682744,5.66895465 L92.0891728,5.72168912 L92.0891728,6.3017682 C92.0891728,6.40723712 92.1419072,6.43360435 92.2473761,6.43360435 L93.0383931,6.48633881 C94.0403478,6.56544051 94.0930823,6.77637835 94.0930823,7.88380205 L94.0930823,15.0029544 C94.0930823,15.9258075 94.0403478,16.215847 93.0383931,16.2685815 L92.2210089,16.321316 C92.1419072,16.321316 92.0891728,16.3740504 92.0891728,16.4531521 L92.0891728,17.0332312 L92.11554,17.0859657 C92.11554,17.0859657 93.9085117,17.0332312 95.0423026,17.0332312 C95.886054,17.0332312 97.1780483,17.0859657 97.1780483,17.0859657 L97.2044156,17.0332312 L97.2044156,16.4795193 C97.2044156,16.3740504 97.1516811,16.321316 97.0462122,16.321316 C96.1497263,16.2422143 96.0706246,15.9521747 96.0706246,15.3193612 L96.0706246,15.2666267 L101.502274,8.72755345 L101.502274,14.9502199 C101.502274,15.873073 101.423173,16.215847 100.421218,16.2685815 L99.6038336,16.321316 C99.5247319,16.321316 99.4719974,16.3740504 99.4719974,16.4531521 L99.4719974,17.0332312 L99.4719974,17.0859657 C99.4719974,17.0859657 101.264969,17.0332312 102.425127,17.0332312 C103.611653,17.0332312 105.457359,17.0859657 105.457359,17.0859657 L105.483726,17.0332312 L105.483726,16.4795193 C105.483726,16.3740504 105.430992,16.321316 105.325523,16.321316 L104.534506,16.2685815 C103.611653,16.215847 103.479817,15.9258075 103.479817,14.9502199 L103.479817,7.85743482 C103.479817,6.75001112 103.558918,6.53907328 104.534506,6.48633881 L105.325523,6.43360435 C105.430992,6.43360435 105.483726,6.38086989 105.483726,6.27540097 L105.483726,5.72168912 L105.457359,5.66895465 C105.457359,5.66895465 103.611653,5.72168912 102.425127,5.72168912 C101.686845,5.72168912 100.500319,5.66895465 100.500319,5.66895465 L100.447585,5.72168912 L100.447585,6.3017682 C100.447585,6.40723712 100.500319,6.43360435 100.579421,6.43360435 C101.475907,6.51270605 101.502274,6.96094897 101.502274,7.59376251 L96.0706246,14.1328358 L96.0706246,7.85743482 C96.0706246,6.77637835 96.1497263,6.56544051 97.1516811,6.48633881 L97.942698,6.43360435 C98.0481669,6.43360435 98.1009014,6.38086989 98.1009014,6.27540097 L98.1009014,5.72168912 L98.0481669,5.66895465 C98.0481669,5.66895465 96.2024608,5.72168912 95.0423026,5.72168912 M115.491204,8.5166156 L115.491204,15.1084233 C115.491204,15.8467058 115.14843,16.1894798 114.041006,16.2685815 L113.355458,16.321316 C113.223622,16.321316 113.14452,16.4004177 113.14452,16.5322538 L113.14452,17.0332312 L113.197254,17.0859657 C113.197254,17.0859657 115.649407,17.0332312 116.598627,17.0332312 C117.626949,17.0332312 119.920898,17.0859657 119.920898,17.0859657 L119.973633,17.0332312 L119.973633,16.5322538 C119.973633,16.4004177 119.868164,16.321316 119.762695,16.321316 L119.05078,16.2685815 C117.969723,16.1894798 117.626949,15.8994403 117.626949,15.1084233 L117.626949,1.95117509 C117.626949,1.05468924 117.916989,0.870118621 119.024412,0.791016929 L119.815429,0.738282467 C119.947266,0.738282467 120,0.659180774 120,0.55371185 L120,0 C120,0 117.442379,0.026367231 116.624994,0.026367231 C115.754876,0.026367231 114.199209,0 113.276356,0 C108.372051,0 107.475565,2.37305079 107.475565,4.19238972 C107.475565,6.88184728 109.611311,8.0947399 111.404283,8.35841221 C110.718735,8.83302237 110.349593,9.72950822 109.927718,10.8105647 C108.530255,14.3174064 107.185526,16.1894798 106.341774,16.2949487 L106.104469,16.321316 C105.999,16.321316 105.919899,16.4004177 105.919899,16.5322538 L105.919899,17.0332312 L105.946266,17.0859657 L107.686503,17.0595984 C109.558577,17.0332312 110.323226,15.187525 111.351548,12.2871296 C112.300769,9.59767207 112.696277,8.5166156 115.491204,8.5166156 M115.491204,1.8720734 L115.491204,7.48829359 L113.434559,7.48829359 C111.246079,7.48829359 109.611311,6.59180774 109.611311,3.79688126 C109.611311,1.34472878 111.615221,0.922853083 113.091785,0.922853083 C115.385735,0.922853083 115.491204,1.00195478 115.491204,1.8720734" id="bg-wordmark" fill="#000000" fill-rule="nonzero"></path>
    </g>
</svg>

<svg xmlns="http://www.w3.org/2000/svg" width="120" height="21"><path fill="#000" fill-rule="nonzero" d="M.07 0c.268.005 1.72.026 2.699.026h.161C4.142.024 5.877.004 6.157 0h.04l.052.026v.501c0 .132-.053.211-.185.211L5.063.791c-.844.053-.897.396-.58 1.081l4.14 9.123h.052l3.401-9.123c.343-.923.185-1.002-.87-1.081l-.765-.053c-.105 0-.158-.079-.158-.184V.026L10.31 0h.041c.27.005 1.8.026 2.806.026h.153C14.146.023 15.267 0 15.267 0l.052.026v.501c0 .159-.184.211-.29.211-1.213.08-1.476.317-1.872 1.371l-4.14 10.68c-1.133 2.873-2.583 4.824-4.956 4.824-1.108 0-2.32-.606-2.32-1.45 0-.738.395-1.213 1.238-1.213.37 0 .95.185 1.213.501.185.238.58.528.95.528.843 0 1.503-.554 2.32-2.532L2.32 2.294C2.083 1.767 1.53.817.264.738.105.738 0 .66 0 .554V.026L.026 0ZM27.438 5.67l.027.053v.553c0 .106-.053.159-.159.159l-.79.052c-.976.053-1.055.264-1.055 1.371v7.093c0 .976.132 1.266 1.054 1.319l.791.052c.106 0 .159.053.159.159v.553l-.027.053s-1.845-.053-3.032-.053h-.155c-1.158.005-2.798.053-2.798.053v-.633c0-.079.053-.132.132-.132l.817-.052c1.002-.053 1.081-.396 1.081-1.319V8.728l-5.431 6.539v.052c0 .633.079.923.975 1.002.106 0 .158.053.158.159v.553l-.026.053s-1.292-.053-2.136-.053h-.151c-1.135.005-2.776.053-2.776.053l-.026-.053v-.58c0-.079.053-.132.132-.132l.817-.052c1.002-.053 1.055-.343 1.055-1.266v-7.12c0-1.107-.053-1.318-1.055-1.397l-.79-.052c-.106 0-.159-.027-.159-.132v-.58l.08-.053s1.74.053 2.873.053h.155c1.162-.005 2.851-.053 2.851-.053l.053.053v.553c0 .106-.053.159-.158.159l-.791.052c-1.002.08-1.081.29-1.081 1.371v6.276l5.431-6.54c0-.632-.026-1.08-.923-1.16-.079 0-.131-.026-.131-.131v-.58l.052-.053s1.187.053 1.925.053h.158c1.186-.005 2.874-.053 2.874-.053Zm4.84 9.545v-3.692c1.977.132 2.557 1.082 3.058 2.532.396 1.16 1.213 2.98 2.532 3.006l1.898.026.08-.053v-.474c0-.185-.185-.238-.29-.238l-.212-.026c-.949-.132-2.03-2.426-2.452-3.428-.527-1.292-1.556-1.82-2.98-1.82 1.134-.184 1.74-1.265 2.136-2.399.29-.817.686-1.397.95-1.397.237 0 .421.08.527.185.158.158.527.263.79.263.475 0 1.003-.5 1.003-1.028 0-.633-.29-1.187-1.371-1.187-1.266 0-2.11 1.424-2.584 2.663-.554 1.45-1.319 2.453-3.085 2.453V7.594c0-.95.553-1.081 1.318-1.16.106 0 .211-.132.211-.264v-.448l-.053-.053s-1.476.053-2.505.053c-.922 0-2.715-.053-2.715-.053l-.053.053v.5c0 .133.079.185.21.212l.502.052c.844.08 1.107.422 1.107 1.16v7.515c0 .738-.184 1.002-1.107 1.108l-.501.052c-.132.027-.211.08-.211.211v.501l.053.053s1.793-.053 2.715-.053c1.029 0 2.558.053 2.558.053l.053-.053v-.5c0-.133-.106-.185-.211-.212-.58-.079-1.371-.237-1.371-1.107m10.94-9.492c-1.133 0-2.874-.053-2.874-.053l-.079.053v.58c0 .105.053.132.158.132l.791.052c1.002.08 1.055.29 1.055 1.398v7.119c0 .923-.053 1.213-1.055 1.266l-.817.052c-.079 0-.132.053-.132.132v.58l.027.053s1.793-.053 2.926-.053c.844 0 2.136.053 2.136.053l.027-.053v-.553c0-.106-.053-.159-.159-.159-.896-.079-.975-.369-.975-1.002v-.052l5.431-6.54v6.223c0 .923-.079 1.266-1.08 1.319l-.818.052c-.08 0-.132.053-.132.132v.633s1.793-.053 2.953-.053c1.187 0 3.032.053 3.032.053l.027-.053v-.553c0-.106-.053-.159-.158-.159l-.791-.052c-.923-.053-1.055-.343-1.055-1.319V7.857c0-1.107.079-1.318 1.055-1.37l.79-.053c.106 0 .159-.053.159-.159v-.553l-.027-.053s-1.845.053-3.032.053c-.738 0-1.925-.053-1.925-.053l-.052.053v.58c0 .105.052.132.132.132.896.079.922.527.922 1.16l-5.431 6.539V7.857c0-1.08.079-1.292 1.08-1.37l.792-.053c.105 0 .158-.053.158-.159v-.553l-.053-.053s-1.845.053-3.006.053m13.41 2.056v7.251c0 .923-.133 1.187-1.082 1.24l-.79.052c-.106 0-.159.053-.159.132v.58l.053.053s1.793-.053 2.953-.053c1.134 0 2.874.053 2.874.053l.026-.053v-.553c0-.106-.052-.159-.132-.159l-.712-.052c-.896-.053-1.054-.238-1.054-1.24V7.78c0-.924.527-1.029 1.08-1.029h3.191c.528 0 1.081.053 1.081 1.028v7.251c0 .923-.131 1.16-1.08 1.24l-.713.052c-.079 0-.131.053-.131.132v.58l.026.053s1.767-.053 2.9-.053c1.16 0 2.953.053 2.953.053l.027-.053v-.553c0-.106-.053-.159-.158-.159l-.791-.052c-.923-.053-1.081-.238-1.081-1.24V7.752c0-1.081.079-1.187 1.08-1.266l.792-.052c.105 0 .158-.053.158-.159v-.553l-.027-.053s-1.845.053-3.032.053h-7.304c-1.133 0-2.9-.053-2.9-.053l-.053.053v.58c0 .105.053.132.132.132l.791.052c.95.053 1.081.185 1.081 1.292M71.02 9.466c.475-2.98 2.426-3.111 3.032-3.111.95 0 2.189.527 2.189 2.742 0 .237-.106.369-.37.369h-4.85m6.96 5.062c-.923 1.002-1.846 1.477-3.296 1.477-1.476 0-3.744-1.582-3.744-5.51h6.935c.29 0 .474-.159.474-.45 0-2.214-.817-4.587-4.298-4.587-2.505 0-5.22 2.32-5.22 6.328 0 3.032 1.608 5.51 5.22 5.51 1.899 0 3.454-.975 4.456-2.346-.079-.263-.237-.395-.527-.422m4.433 1.16c0-.448.659-2.267 1.028-8.279 0-.105.132-.685.738-.685h2.136c.975 0 1.055.395 1.055 1.292v6.697c0 .87-.08 1.292-1.055 1.292h-3.402c-.263 0-.5-.026-.5-.316m.448 1.344h4.535c2.188 0 2.953 2.32 3.164 3.375h.66l-.159-3.533c0-.37-.185-.475-.66-.554-.447-.079-1.054-.316-1.054-1.292V7.726c0-.897.264-1.134 1.213-1.24l.448-.052c.08 0 .185-.08.185-.185v-.527l-.027-.053s-1.924.053-2.794.053H82.86c-.448 0-2.505-.053-2.505-.053l-.08.053v.58c0 .105.08.132.185.132l.712.052c.923.08 1.081.607 1.081.923 0 3.138-.474 5.537-.975 7.779-.158.711-.633 1.054-1.319 1.133-.369.053-.712.106-.738.58l-.158 3.507.685.027c.211-.976.897-3.402 3.112-3.402M95.042 5.722c-1.133 0-2.874-.053-2.874-.053l-.079.053v.58c0 .105.053.132.158.132l.791.052c1.002.08 1.055.29 1.055 1.398v7.119c0 .923-.053 1.213-1.055 1.266l-.817.052c-.08 0-.132.053-.132.132v.58l.027.053s1.793-.053 2.926-.053c.844 0 2.136.053 2.136.053l.026-.053v-.553c0-.106-.052-.159-.158-.159-.896-.079-.975-.369-.975-1.002v-.052l5.431-6.54v6.223c0 .923-.079 1.266-1.08 1.319l-.818.052c-.08 0-.132.053-.132.132v.633s1.793-.053 2.953-.053c1.187 0 3.032.053 3.032.053l.027-.053v-.553c0-.106-.053-.159-.158-.159l-.791-.052c-.923-.053-1.055-.343-1.055-1.319V7.857c0-1.107.079-1.318 1.055-1.37l.79-.053c.106 0 .159-.053.159-.159v-.553l-.027-.053s-1.845.053-3.032.053c-.738 0-1.925-.053-1.925-.053l-.052.053v.58c0 .105.052.132.131.132.897.079.923.527.923 1.16l-5.431 6.539V7.857c0-1.08.079-1.292 1.08-1.37l.792-.053c.105 0 .158-.053.158-.159v-.553l-.053-.053s-1.846.053-3.006.053m20.45 2.795v6.591c0 .739-.344 1.081-1.451 1.16l-.686.053c-.131 0-.21.08-.21.211v.501l.052.053s2.452-.053 3.402-.053c1.028 0 3.322.053 3.322.053l.053-.053v-.5a.208.208 0 0 0-.211-.212l-.712-.052c-1.081-.08-1.424-.37-1.424-1.16V1.95c0-.896.29-1.08 1.397-1.16l.791-.053c.132 0 .185-.079.185-.184V0s-2.558.026-3.375.026c-.87 0-2.426-.026-3.349-.026-4.904 0-5.8 2.373-5.8 4.192 0 2.69 2.135 3.903 3.928 4.166-.685.475-1.054 1.372-1.476 2.453-1.398 3.506-2.742 5.378-3.586 5.484l-.238.026c-.105 0-.184.08-.184.211v.501l.026.053 1.74-.026c1.873-.027 2.637-1.872 3.666-4.773.949-2.69 1.344-3.77 4.14-3.77m0-6.645v5.616h-2.057c-2.189 0-3.824-.896-3.824-3.691 0-2.452 2.004-2.874 3.48-2.874 2.295 0 2.4.079 2.4.95"/></svg>
